!!!CDT:
!!!PTL: Il quarto libro de madrigali a cinque voci
!!!PPP: Venice
!!!PPR: Angelo Gardano
!!!PDT: 1596
!!!PUB-format:
!!!RISM: T 1175
!!!rime: 25
!!!AGN: Madrigal
!!!SCT: Trm0025a
!!!SCA: Trm0025a
!!!original-voices: 5
!!!extant-voices: 4
!!!complete: N
!!!final: C
!!!COM: Tresti, Flaminio
!!!OTL: Come vivrò ne le mie pene, Amore
**kern	**text	**kern	**text	**kern	**text	**kern	**text
*part4	*part4	*part3	*part3	*part2	*part2	*part1	*part1
*staff4	*staff4	*staff3	*staff3	*staff2	*staff2	*staff1	*staff1
*I"Basso	*	*I"Tenore	*	*I"Alto	*	*I"Canto	*
*I'B	*	*I'T	*	*I'A	*	*I'C	*
*oclefC4	*	*oclefC3	*	*oclefC2	*	*oclefG2	*
*clefF4	*	*clefGv2	*	*clefG2	*	*clefG2	*
*k[]	*	*k[]	*	*k[]	*	*k[]	*
*C:	*	*C:	*	*C:	*	*C:	*
*omet(C)	*	*omet(C)	*	*omet(C)	*	*omet(C)	*
*M4/2	*	*M4/2	*	*M4/2	*	*M4/2	*
=1	=1	=1	=1	=1	=1	=1	=1
0r	.	0r	.	1r	.	2ee	Co-
.	.	.	.	.	.	4dd	-me
.	.	.	.	.	.	4b	vi-
.	.	.	.	2a	Co-	4.cc	-vrò
.	.	.	.	.	.	8cc	ne
.	.	.	.	4g	-me	4b	le
.	.	.	.	4e	vi-	4cc	mie
=2	=2	=2	=2	=2	=2	=2	=2
0r	.	0r	.	4.f	-vrò	2a	pe-
.	.	.	.	8f	ne	.	.
.	.	.	.	4f	le	4cc	-ne, A-
.	.	.	.	4e	mie	2cc	-mo-
.	.	.	.	2d	pe-	.	.
.	.	.	.	.	.	4b	.
.	.	.	.	2c	-ne, A-	2cc	-re,
=3	=3	=3	=3	=3	=3	=3	=3
2r	.	0r	.	2g	-mo-	4r	.
.	.	.	.	.	.	4dd	Sì
4r	.	.	.	2c	-re,	4.ee	lun-
4A	Co-	.	.	.	.	.	.
.	.	.	.	.	.	8ff	-ge
4G	-me	.	.	1r	.	4gg	dal
4E	vi-	.	.	.	.	4gg	mio
4.F	-vrò	.	.	.	.	4.cc	co-
8F	ne	.	.	.	.	8cc	-re,
=4	=4	=4	=4	=4	=4	=4	=4
4F	le	1r	.	4r	.	4dd	dal
4E	mie	.	.	4g	Co-	4ee	mio
2D	pe-	.	.	4f	-me	2ff	co-
.	.	.	.	4d	vi-	.	.
2C	-ne, A-	4r	.	2e	-vrò,	2ee	-re,
.	.	4e	Co-	.	.	.	.
2G	-mo-	4d	-me	2r	.	2r	.
.	.	4B	vi-	.	.	.	.
=5	=5	=5	=5	=5	=5	=5	=5
2C	-re,	4.c	-vrò	2r	.	0r	.
.	.	8c	ne	.	.	.	.
2r	.	4c	le	4r	.	.	.
.	.	4B	mie	4d	Sì	.	.
1r	.	2A	pe-	4.e	lun-	.	.
.	.	.	.	8f	-ge	.	.
.	.	4G	-ne, A-	4g	dal	.	.
.	.	[4c	-mo-	4e	mio	.	.
=6	=6	=6	=6	=6	=6	=6	=6
4r	.	4c]	.	2d	co-	4r	.
4G	Sì	4B	.	.	.	4dd	Sì
4.c	lun-	2c	-re,	2c	-re,	4.ee	lun-
8d	-ge	.	.	.	.	8ff	-ge
4e	dal	4r	.	4r	.	4gg	dal
4e	mio	4e	Sì	4g	<Sì	4gg	mio
2d	co-	4.f	lun-	4.a	lun-	2ff	co-
.	.	8d	-ge	8b	-ge	.	.
=7	=7	=7	=7	=7	=7	=7	=7
2c	-re,	4e	dal	4cc	dal	2ee	-re,
.	.	4e	mio	4cc	mio	.	.
4r	.	2d	co-	4a	co-	4r	.
4G	Sì	.	.	4g	-re,>	4b	<Sì
2.c	lun-	2c	-re,	4r	.	4.cc	lun-
.	.	.	.	4g	Sì	.	.
.	.	.	.	.	.	8dd	-ge
.	.	4r	.	4.e	lun-	4ee	dal
4c	-ge	[4g	dal	.	.	4ee	mio
.	.	.	.	8f	-ge	.	.
=8	=8	=8	=8	=8	=8	=8	=8
4G	dal	4g]	.	4g	dal	4dd	co-
4C	mio	4e	mio	4g	mio	4.gg	.
2G	co-	2d	co-	2g	co-	.	.
.	.	.	.	.	.	16ffL	.
.	.	.	.	.	.	16eeJ	.
.	.	.	.	.	.	4dd	.
1C	-re,	1c	-re,	2g	-re,	1ee	-re,>
.	.	.	.	4r	.	.	.
.	.	.	.	8g	Se	.	.
.	.	.	.	8g	la	.	.
=9	=9	=9	=9	=9	=9	=9	=9
0r	.	4r	.	4g	dol-	0r	.
.	.	8c	Se	8g	-ce	.	.
.	.	8c	la	8g	me-	.	.
.	.	4c	dol-	4a	-mo-	.	.
.	.	8c	-ce	4g	-ria	.	.
.	.	8c	me-	.	.	.	.
.	.	4d	-mo-	4f	non	.	.
.	.	4c	-ria	4e	m'a-	.	.
.	.	4A	non	4a	-i-	.	.
.	.	4B	m'a-	[4g	.	.	.
=10	=10	=10	=10	=10	=10	=10	=10
1r	.	8cL	-i-	4g]	.	1r	.
.	.	8d	.	.	.	.	.
.	.	8e	.	2cc	.	.	.
.	.	8fJ	.	.	.	.	.
.	.	2g	.	.	.	.	.
.	.	.	.	4b	.	.	.
4r	.	1c	-ta	4cc	-ta,	4r	.
8c	Se	.	.	8g	Se	8ee	Se
8c	la	.	.	8g	la	8ee	la
4c	dol-	.	.	4g	dol-	4ee	dol-
8c	-ce	.	.	8g	-ce	8ee	-ce
8c	me-	.	.	8g	me-	8ee	me-
=11	=11	=11	=11	=11	=11	=11	=11
2.F	-mo-	0r	.	2.a	-mo-	2.ff	-mo-
4c	-ria	.	.	4g	-ria	4ee	-ria
4B	non	.	.	4g	non	4dd	non
4c	m'a-	.	.	4e	m'a-	4ee	m'a-
8FL	-i-	.	.	2f	-i-	2cc	-i-
8G	.	.	.	.	.	.	.
8A	.	.	.	.	.	.	.
8FJ	.	.	.	.	.	.	.
=12	=12	=12	=12	=12	=12	=12	=12
2G	.	2r	.	4d	-ta	1gg	-ta
.	.	.	.	4g	Di	.	.
4G	-ta	4r	.	2g	lei,	.	.
4G	Di	4d	Di	.	.	.	.
4.c	lei	4.e	lei	2r	.	2r	.
8B	ch'è	8d	ch'è	.	.	.	.
4A	la	4c	la	4r	.	2ee	Di
4G	mia	4B	mia	4g	Di	.	.
=13	=13	=13	=13	=13	=13	=13	=13
*lig	*	*	*	*	*	*	*
1F	vi-	2A	vi-	4.a	lei	4.ff	lei
.	.	.	.	8g	ch'è	8ee	ch'è
.	.	4A	-ta,	4f	la	4dd	la
.	.	4A	ch'è	4e	mia	4cc	mia
1G	.	4d	la	4d	vi-	4b	vi-
*Xlig	*	*	*	*	*	*	*
.	.	4e	mia	4.g	.	2cc	.
.	.	2d	vi-	.	.	.	.
.	.	.	.	16fL	.	.	.
.	.	.	.	16eJ	.	.	.
.	.	.	.	4d	.	4b	.
=14	=14	=14	=14	=14	=14	=14	=14
1C	-ta?	2c	-ta,	4e	-ta,	1cc	-ta,
.	.	.	.	4c	Di	.	.
.	.	4r	.	2g	lei,	.	.
.	.	4c	Di	.	.	.	.
1r	.	4.g	lei	2r	.	4r	.
.	.	.	.	.	.	4dd	Di
.	.	8f	ch'è	.	.	.	.
.	.	4e	la	2g	Di	4.gg	lei
.	.	4d	mia	.	.	.	.
.	.	.	.	.	.	8ff	ch'è
=15	=15	=15	=15	=15	=15	=15	=15
*	*	*lig	*	*	*	*	*
0r	.	1c	vi-	4.cc	lei	4ee	la
.	.	.	.	.	.	4dd	mia
.	.	.	.	8b	ch'è	.	.
.	.	.	.	4a	la	2ee	vi-
.	.	.	.	4g	mia	.	.
.	.	1d	-	4f#X	vi-	1dd	-ta?
*	*	*Xlig	*	*	*	*	*
.	.	.	.	2g	.	.	.
.	.	.	.	4f#X	.	.	.
=16	=16	=16	=16	=16	=16	=16	=16
0r	.	4G	-ta?	4g	-ta?	4r	.
.	.	2g	Dol-	2b	Dol-	2dd	Dol-
.	.	2f#X	-ce	2a	-ce	2dd	-ce
.	.	4g	me-	4b	me-	4dd	me-
.	.	8cL	-mo-	4cc	-mo-	2ee	-mo-
.	.	8d	.	.	.	.	.
.	.	8e	.	8bL	.	.	.
.	.	8fnXiJ	.	8aJ	.	.	.
=17	=17	=17	=17	=17	=17	=17	=17
1r	.	4g	.	4b	.	4dd	-ria e
.	.	4G	-ria e	4b	-ria e	2gg	spe-
.	.	2d	spe-	2a	spe-	.	.
.	.	.	.	.	.	4ff	.
4r	.	4G	-me,	2b	-me,	4gg	-me,
2G	Dol-	2g	Dol-	.	.	4g	Dol-
.	.	.	.	2r	.	4b	-ce
[4D	-ce	[4f#X	-ce	.	.	4a	me-
=18	=18	=18	=18	=18	=18	=18	=18
4D]	.	4f#]	.	1r	.	4a	-mo-
4G	me-	4g	me-	.	.	4b	-ria e
4c	-mo-	4e	-mo-	.	.	4cc	spe-
4d	-ria e	4fnXi	-ria e	.	.	8bL	.
.	.	.	.	.	.	8aJ	.
2e	spe-	4g	spe-	2r	.	8gL	.
.	.	.	.	.	.	8a	.
.	.	4g	-me,	.	.	8b	.
.	.	.	.	.	.	8gJ	.
2d	-me,	8r	.	8r	.	4a	.
.	.	8f	I-	8a	I-	.	.
.	.	8f	-ma-	8a	-ma-	4a	-me,
.	.	8g	-gi-	8b	-gi-	.	.
=19	=19	=19	=19	=19	=19	=19	=19
8r	.	4a	-na-	4cc	-na-	2r	.
8A	I-	.	.	.	.	.	.
8A	-ma-	4f	-ta	4a	-ta	.	.
8B	-gi-	.	.	.	.	.	.
4c	-na-	2e	vi-	2g	vi-	8r	.
.	.	.	.	.	.	8ee	I-
4c	-ta	.	.	.	.	8ee	-ma-
.	.	.	.	.	.	8ff	-gi-
2.G	vi-	2d	-sta	2g	-sta	4gg	-na-
.	.	.	.	.	.	4gg	-ta
.	.	4r	.	4r	.	2gg	vi-
4C	-sta e	4e	e	4g	e	.	.
=20	=20	=20	=20	=20	=20	=20	=20
2F	ca-	4.A	ca-	2a	ca-	4ff	-sta e
.	.	.	.	.	.	2ff	ca-
.	.	8B	.	.	.	.	.
2C	-ro o-	4c	.	2g	-ro o-	.	.
.	.	4G	-ro o-	.	.	4ee	-ro o-
2D	-biet-	2d	-biet-	2f	-biet-	2dd	-biet-
4C	-to,	4e	-to,	2e	-to,	2g	-to,
4c	Voi	[4g	Voi	.	.	.	.
=21	=21	=21	=21	=21	=21	=21	=21
2d	se-	4g]	.	4r	.	4r	.
.	.	2f	se-	4a	Voi	4dd	Voi
2A	-t'il	.	.	2a	se-	8ccL	se-
.	.	.	.	.	.	8dd	.
.	.	4e	-t'il	.	.	8ee	.
.	.	.	.	.	.	8ccJ	.
4B	mio	8gL	mio	4d	-t'il	4dd	.
.	.	8f	.	.	.	.	.
4c	di-	8e	.	2g	mio	4g	-t'il
.	.	8dJ	.	.	.	.	.
2A	-let-	4c	.	.	.	4a	mio
.	.	4c	di-	4f	di-	4cc	di-
=22	=22	=22	=22	=22	=22	=22	=22
2G	-to,	1d	-let-	8gL	-let-	4b	-let-
.	.	.	.	8dJ	.	.	.
.	.	.	.	2g	.	8aL	.
.	.	.	.	.	.	8gJ	.
2r	.	.	.	.	.	2a	.
.	.	.	.	4f#X	.	.	.
1r	.	2G	-to,	1g	-to,	2b	-to,
.	.	4r	.	.	.	4r	.
.	.	4g	Voi	.	.	4b	Voi
=23	=23	=23	=23	=23	=23	=23	=23
0r	.	2e	se-	0r	.	4cc	se-
.	.	.	.	.	.	4b	-t'il
.	.	4d	-t'il	.	.	4dd	mio
.	.	2c	mio	.	.	2ee	di-
.	.	4e	di-	.	.	4.cc	-let-
.	.	2g	-let-	.	.	.	.
.	.	.	.	.	.	16bL	.
.	.	.	.	.	.	16aJ	.
.	.	.	.	.	.	4b	.
=24	=24	=24	=24	=24	=24	=24	=24
4r	.	1c	-to,	2r	.	1cc	-to,
8A	La	.	.	.	.	.	.
8B	mia	.	.	.	.	.	.
2.c	vi-	.	.	4r	.	.	.
.	.	.	.	8e	La	.	.
.	.	.	.	8f	mia	.	.
.	.	1r	.	2.g	vi-	1r	.
8G	-t'e'l	.	.	.	.	.	.
8A	mio	.	.	.	.	.	.
2B-X	be-	.	.	.	.	.	.
.	.	.	.	8d	-t'e'l	.	.
.	.	.	.	8e	mio	.	.
=25	=25	=25	=25	=25	=25	=25	=25
2F	-ne,	0r	.	2f	be-	4r	.
.	.	.	.	.	.	8cc	La
.	.	.	.	.	.	8dd	mia
4r	.	.	.	2c	-ne,	2.ee	vi-
8c	La	.	.	.	.	.	.
8d	mia	.	.	.	.	.	.
2e	vi-	.	.	4r	.	.	.
.	.	.	.	8g	La	8b	-t'e'l
.	.	.	.	8a	mia	8cc	mio
4BnXi	-t'e'l	.	.	4b	vi-	4dd	be-
4c	mio	.	.	8a	-t'e'l	8ccL	.
.	.	.	.	8g	mio	8bJ	.
=26	=26	=26	=26	=26	=26	=26	=26
2d	be-	2r	.	2f#X	be-	2a	.
2G	-ne;	4r	.	2g	-ne;	2b	-ne,
.	.	8d	La	.	.	.	.
.	.	8e	mia	.	.	.	.
1r	.	2.f	vi-	1r	.	4r	.
.	.	.	.	.	.	8a	La
.	.	.	.	.	.	8b	mia
.	.	.	.	.	.	[2cc	vi-
.	.	8e	-t'e'l	.	.	.	.
.	.	8f	mio	.	.	.	.
=27	=27	=27	=27	=27	=27	=27	=27
2r	.	1g	be-	2r	.	4cc]	.
.	.	.	.	.	.	8b	-t'e'l
.	.	.	.	.	.	8a	mio
2G	Ma	.	.	4r	.	2b	be-
.	.	.	.	4d	Ma	.	.
4c	pur	2g	-ne;	4e	pur	2cc	-ne;
4.c	mez-	.	.	4.e	mez-	.	.
.	.	4r	.	.	.	2r	.
8c	-zo	.	.	8e	-zo	.	.
4B	son	4g	Ma	4d	son	.	.
=28	=28	=28	=28	=28	=28	=28	=28
2c	io,	4g	pur	4.e	io	2r	.
.	.	4.e	mez-	.	.	.	.
.	.	.	.	8f	tra	.	.
4r	.	.	.	4g	mor-	2b	Ma
.	.	8e	-zo	.	.	.	.
4G	Ma	4d	son	4g	-t'e	.	.
4A	pur	1c	io,	4e	vi-	4cc	pur
4.F	mez-	.	.	4a	-vo,	4.a	mez-
.	.	.	.	4r	.	.	.
8F	-zo	.	.	.	.	8a	-zo
4E	son	.	.	4g	tra	4g	son
=29	=29	=29	=29	=29	=29	=29	=29
4F	io	1r	.	4f	mor-	4a	io
4c	tra	.	.	4e	-t'e	4g	tra
4B	mor-	.	.	4d	vi-	4b	mor-
4A	-t'e	.	.	4c	-vo,	4cc	-t'e
2G	vi-	4r	.	4r	.	8bL	vi-
.	.	.	.	.	.	8cc	.
.	.	4G	<Ma	4g	Ma	8dd	.
.	.	.	.	.	.	8bJ	.
2C	-vo,	4c	pur	4g	pur	4cc	.
.	.	[4c	mez-	[4g	mez-	4g	-vo,
=30	=30	=30	=30	=30	=30	=30	=30
1r	.	8c]	.	8g]	.	0r	.
.	.	8c	-zo	8g	-zo	.	.
.	.	4B	son	4g	son	.	.
.	.	4c	io>	2g	io,	.	.
.	.	4e	tra	.	.	.	.
4r	.	4d	mor-	1r	.	.	.
4c	tra	4c	-t'e	.	.	.	.
4B	mor-	4g	vi-	.	.	.	.
4A	-t'e	4c	-vo,	.	.	.	.
=31	=31	=31	=31	=31	=31	=31	=31
4G	vi-	4r	.	0r	.	2r	.
4G	-vo,	4g	tra	.	.	.	.
2r	.	4f	mor-	.	.	4r	.
.	.	4e	-t'e	.	.	4cc	tra
1r	.	8dL	vi-	.	.	4b	mor-
.	.	8e	.	.	.	.	.
.	.	8f	.	.	.	4a	-t'e
.	.	8dJ	.	.	.	.	.
.	.	8eL	.	.	.	4g	vi-
.	.	8d	.	.	.	.	.
.	.	8e	.	.	.	[4cc	.
.	.	8fJ	.	.	.	.	.
=32	=32	=32	=32	=32	=32	=32	=32
2r	.	2g	.	4r	.	4cc]	.
.	.	.	.	4g	<Ma	4b	.
4r	.	2c	-vo,	4g	pur	4cc	-vo,
4c	tra	.	.	4.g	mez-	4ee	tra
4B	mor-	1r	.	.	.	4dd	mor-
.	.	.	.	8g	-zo	.	.
4A	-t'e	.	.	4a	son	4cc	-t'e
8GL	vi-	.	.	4d	io>	8bL	vi-
8A	.	.	.	.	.	8cc	.
8B	.	.	.	4g	tra	8dd	.
8GJ	.	.	.	.	.	8bJ	.
=33	=33	=33	=33	=33	=33	=33	=33
8AL	.	1r	.	4f	mor-	8ccL	.
8BJ	.	.	.	.	.	8dd	.
2c	.	.	.	4e	-t'e	8ee	.
.	.	.	.	.	.	8ccJ	.
.	.	.	.	2d	vi-	2dd	.
4B	.	.	.	.	.	.	.
4c	-vo,	2.e	Poi	2c	-vo,	2g	-vo,
2c	Poi	.	.	.	.	.	.
.	.	.	.	2r	.	[2gg	Poi
8B	che	8d	che	.	.	.	.
8A	del	8c	del	.	.	.	.
=34	=34	=34	=34	=34	=34	=34	=34
2G	cor	4B	cor	1r	.	4gg]	.
.	.	4c	son	.	.	8ff	che
.	.	.	.	.	.	8ee	del
2G	son	2d	pri-	.	.	4dd	cor
.	.	.	.	.	.	4g	son
*lig	*	*	*	*	*	*	*
1E	pri-	1G	-vo,	2r	.	2b	pri-
.	.	.	.	[2g	Poi	2cc	.
=35	=35	=35	=35	=35	=35	=35	=35
1D	.	1r	.	4g]	.	4dd	-vo,
*Xlig	*	*	*	*	*	*	*
.	.	.	.	8f	che	4dd	del
.	.	.	.	8e	del	.	.
.	.	.	.	4d	cor	4ff	cor
.	.	.	.	4f	son	4dd	son
1G	-vo,	4r	.	2g	pri-	2dd	pri-
.	.	2d	Poi	.	.	.	.
.	.	.	.	2d	-vo,	2dd	-vo,
.	.	8c	che	.	.	.	.
.	.	8B	del	.	.	.	.
=36	=36	=36	=36	=36	=36	=36	=36
4r	.	4A	cor,	2r	.	4r	.
4C	del	2c	Poi	.	.	2ee	Poi
4E	cor	.	.	2g	son	.	.
4F	son	8B	che	.	.	8dd	che
.	.	8A	del	.	.	8cc	del
[1G	pri-	4B	cor	[1g	pri-	4b	cor
.	.	4e	son	.	.	4g	son
.	.	2d	pri-	.	.	4.b	pri-
.	.	.	.	.	.	8cc	.
=37	=37	=37	=37	=37	=37	=37	=37
1G]	.	4B	-vo,	1g]	.	4dd	.
.	.	4c	son	.	.	2cc	.
.	.	2d	pri-	.	.	.	.
.	.	.	.	.	.	4b	.
1Cl	-vo.	1cl	-vo.	1gl	-vo.	1ccl	-vo.
==	==	==	==	==	==	==	==
*-	*-	*-	*-	*-	*-	*-	*-
!!!system-decoration: [*]
!!!RDF**kern: i = editorial accidental
!!!RDF**kern: l = terminal long
!!!ENC: Emiliano Ricciardi
!!!END: 2019/08/08
!!!EED: Ricciardi, Emiliano
!!!EEV: 2019/08/08
!!!YEC: Copyright 2018 Emiliano Ricciardi, All Rights Reserved
!!!ONB: Translated from MusicXML on 2019/08/08 and edited by Craig Stuart Sapp
!!@@BEGIN:	VERSEDATA
!!@SOLERTI:	25
!!@CATALOGNUM:	Trm0025
!!@LAST_MODIFIED: 2020/07/12
!!@TITLE:		Come vivrò ne le mie pene, Amore
!!@GENRE:		madrigale
!!@MANUSRC:	C, E<sub>1</sub>, F<sub>2</sub>
!!@PRINTSRC:	27, 48, 54, 70, 141, 145, 166, 169
!!@@BEGIN:	VERSES
!!@ABOUTIT:	Ad Amore, ne l'istesso soggetto. (i.e., "Ne la lontananza de la sua donna dice di non poter avere alcun piacer lontano da lei se non quello ch'egli sente nel patir di lei." <i>Rime</i> 23-24)
!!@ABOUTEN:	To Love, on the same subject. (i.e., "In the absence of his lady, he says he experiences no pleasure away from her but the one he feels in languishing for her." <i>Rime</i> 23-24)
!!@EDITOR:	Solerti, Angelo
!!@EDITION_TITLE: Le Rime di Torquato Tasso
!!@EDITION_LOC:	Bologna
!!@EDITION_PUB:	Romagnoli-Dall’Acqua
!!@EDITION_DATE:  1898-1902
!!@EDITION_VOL:	2
!!@EDITION_PAGE:  36
!!@TRANSLATOR:	Emiliano Ricciardi and Amyrose McCue Gill
!!@VERSE:
!!	Come vivrò ne le mie pene, Amore,
!!	Sì lunge dal mio core,
!!	Se la dolce memoria non m'aita
!!	Di lei ch'è la mia vita?
!!	Dolce memoria e spene,
!!	Imaginata vista e caro obietto,
!!	Voi siete il mio diletto
!!	La mia vita e 'l mio bene;
!!	Ma pur mezzo son'io tra morto e vivo,
!!	Poi che del cor son privo.
!!@TVERSE:
!!	How will I live in my pain, Love,
!!	So far from my heart,
!!	If the sweet memory of she
!!	Who is my life does not help me?
!!	Sweet memory and hope,
!!	Imagined vision and precious thing,
!!	You are my delight,
!!	My life and my wellbeing;
!!	Yet still I am between dead and alive,
!!	Because of my heart I am deprived.
!!@@END:		VERSES
!!
!!@OTHER_CRIT_ED:   Torquato Tasso, <i>Rime d’amore (secondo il codice
!!		Chigiano L VIII 302)</i>, eds. Franco Gavazzeni and
!!		Vercingetorige Martignone, vol. 4 of <i>Edizione
!!		Nazionale delle opere di Torquato Tasso</i>
!!		(Alessandria: Edizioni Dell’Orso, 2004), 16.
!!@ATTRIBUTION_ABOUT: Secure
!!		<br>
!!		Among other authoritative sources (see Literary
!!		Sources), this poem appears, albeit erased, in the autograph Chigiano
!!		L.VIII.302 (Biblioteca Vaticana, Rome), compiled
!!		around 1584&ndash;85.
!!@DATING:
!!@DEDICATEE:	Bendidio, Lucrezia
!!@COMMENTARY:
!!@@END:		VERSEDATA
!!@@BEGIN:	SETTING
!!@CATALOGNUM:	Trm0025a
!!@RIMETITLE:	Come vivrò ne le mie pene, Amore
!!@SOLERTI:	25
!!@COMPOSER:	Tresti, Flaminio
!!@PRINCEPSTITLE:	Il quarto libro de madrigali a cinque voci
!!@PRINCEPSLOC:	Venetia
!!@NORMLOC:	Venice
!!@NORMPUB:	Angelo Gardano
!!@NORMPUBSHORT:	Gardano
!!@PRINCEPSPUB:	Gardano
!!@PRINCEPSYEAR:	1596
!!@PRINCEPSRISM:	T 1175
!!@REPRINTS:	
!!@OVOICES:	5
!!@EXTANTVOICES:	4
!!@PARTBOOKS:	
!!@EXTPARTBOOKS:	
!!@OCLEFS:	G2,C2,C3,C4
!!@OMENSURATION:	C
!!@OKEYSIG:	-
!!@FINAL:	C
!!@TIMPEDITOR:	Ricciardi, Emiliano
!!@NOTE:		
!!@@END:		SETTING
